Origami/24x24/apps/kicad.svg

<svg width="24" height="24" version="1" xmlns="http://www.w3.org/2000/svg">
 <path d="m3 22.5c-0.554 0-1-0.446-1-1v-0.5c0 0.554 0.446 1 1 1h18c0.554 0 1-0.446 1-1v0.5c0 0.554-0.446 1-1 1h-18z" opacity=".2"/>
 <path d="m3 2c-0.554 0-1 0.446-1 1v18c0 0.554 0.446 1 1 1h18c0.554 0 1-0.446 1-1v-14a5 5 0 0 0 -5 -5z" style="fill:#44579d"/>
 <path d="m4 5.5v15h3v-3.5l2.5 3.5h3.5l-5-7.5 5-7.5h-3.5l-2.5 3.5v-3.5h-3zm13.5 0a1.5 1.5 0 0 0 -1.5 1.5 1.5 1.5 0 0 0 1.5 1.5 1.5 1.5 0 0 0 1.5 -1.5 1.5 1.5 0 0 0 -1.5 -1.5zm-1.5 5v10h3v-10h-3z" opacity=".2"/>
 <path d="m4 5v15h3v-3.5l2.5 3.5h3.5l-5-7.5 5-7.5h-3.5l-2.5 3.5v-3.5z" fill="#ffd676"/>
 <path d="m16 10h3v10h-3z" fill="#ffd676"/>
 <circle cx="17.5" cy="6.5" r="1.5" fill="#f70"/>
 <path d="m3 2c-0.554 0-1 0.446-1 1v0.5c0-0.554 0.446-1 1-1h14a5 5 0 0 1 5 5v-0.5a5 5 0 0 0 -5 -5h-14z" style="fill:#ffffff;opacity:.1"/>
</svg>

<svg xmlns="http://www.w3.org/2000/svg" width="24" height="24" version="1">
 <path opacity=".2" d="m3 22.5c-0.554 0-1-0.446-1-1v-0.5c0 0.554 0.446 1 1 1h18c0.554 0 1-0.446 1-1v0.5c0 0.554-0.446 1-1 1h-18z"/>
 <path style="fill:#44579d" d="M 3,2 C 2.446,2 2,2.446 2,3 v 18 c 0,0.554 0.446,1 1,1 h 18 c 0.554,0 1,-0.446 1,-1 V 7 A 5,5 0 0 0 17,2 Z"/>
 <path opacity=".2" d="m4 5.5v15h3v-3.5l2.5 3.5h3.5l-5-7.5 5-7.5h-3.5l-2.5 3.5v-3.5h-3zm13.5 0a1.5 1.5 0 0 0 -1.5 1.5 1.5 1.5 0 0 0 1.5 1.5 1.5 1.5 0 0 0 1.5 -1.5 1.5 1.5 0 0 0 -1.5 -1.5zm-1.5 5v10h3v-10h-3z"/>
 <path fill="#ffd676" d="m4 5v15h3v-3.5l2.5 3.5h3.5l-5-7.5 5-7.5h-3.5l-2.5 3.5v-3.5z"/>
 <path fill="#ffd676" d="m16 10h3v10h-3z"/>
 <circle fill="#f70" cx="17.5" cy="6.5" r="1.5"/>
 <path style="fill:#ffffff;opacity:0.1" d="M 3 2 C 2.446 2 2 2.446 2 3 L 2 3.5 C 2 2.946 2.446 2.5 3 2.5 L 17 2.5 A 5 5 0 0 1 22 7.5 L 22 7 A 5 5 0 0 0 17 2 L 3 2 z"/>
</svg>
